pic/icon-paragraph-nav.svg

<svg xmlns="http://www.w3.org/2000/svg" width="30" height="30" viewBox="0 0 30 30">
  <path fill-rule="evenodd" d="M25,0 C27.7614237,0 30,2.23857625 30,5 L30,25 C30,27.7614237 27.7614237,30 25,30 L5,30 C2.23857625,30 0,27.7614237 0,25 L0,5 C0,2.23857625 2.23857625,0 5,0 L25,0 Z M8.01977401,17 C7.68079096,17 7.39783817,17.2521362 7.34919372,17.5781304 L7.34180791,17.6779661 L7.34180791,22.7253554 L6.15536723,21.5389147 L6.07264407,21.4687452 C5.81118644,21.2816266 5.43898305,21.3050164 5.19491525,21.5389147 C4.96101695,21.772813 4.93762712,22.1439995 5.12474576,22.4135927 L5.19491525,22.4993667 L7.48870056,24.793152 L7.57385311,24.8663724 C7.66253107,24.9314571 7.76097175,24.9721351 7.86185311,24.9884062 L7.96327684,24.9965418 L8.03107345,24.9965418 L8.13358192,24.9884062 C8.23636158,24.9721351 8.33832768,24.9314571 8.42483616,24.8663724 L8.50564972,24.793152 L10.799435,22.4993667 L10.8696045,22.4166435 C11.0567232,22.1551859 11.0333333,21.7829825 10.799435,21.5389147 C10.5858757,21.2948469 10.2167232,21.2704401 9.95557062,21.4656944 L9.87288136,21.5389147 L8.69774011,22.714056 L8.69774011,17.6779661 L8.69035431,17.5781304 C8.64170986,17.2521362 8.35875706,17 8.01977401,17 Z M24,21 L13,21 C12.4477153,21 12,21.4477153 12,22 C12,22.5128358 12.3860402,22.9355072 12.8833789,22.9932723 L13,23 L24,23 C24.5522847,23 25,22.5522847 25,22 C25,21.4871642 24.6139598,21.0644928 24.1166211,21.0067277 L24,21 Z M20,17.5 L13,17.5 C12.4477153,17.5 12,17.9477153 12,18.5 C12,19.0128358 12.3860402,19.4355072 12.8833789,19.4932723 L13,19.5 L20,19.5 C20.5522847,19.5 21,19.0522847 21,18.5 C21,17.9871642 20.6139598,17.5644928 20.1166211,17.5067277 L20,17.5 Z M24,14 L13,14 C12.4477153,14 12,14.4477153 12,15 C12,15.5128358 12.3860402,15.9355072 12.8833789,15.9932723 L13,16 L24,16 C24.5522847,16 25,15.5522847 25,15 C25,14.4871642 24.6139598,14.0644928 24.1166211,14.0067277 L24,14 Z M8.03107345,5 L7.96327684,5 C7.82768362,5 7.6920904,5.04338983 7.57385311,5.13016949 L7.48870056,5.20338983 L5.19491525,7.49717514 C4.93502825,7.76836158 4.93502825,8.19774011 5.19491525,8.45762712 C5.43898305,8.69152542 5.81118644,8.71491525 6.07264407,8.52779661 L6.15536723,8.45762712 L7.34180791,7.27118644 L7.34180791,12.3185757 C7.34180791,12.6914571 7.64689266,12.9965418 8.01977401,12.9965418 C8.35875706,12.9965418 8.64170986,12.7444057 8.69035431,12.4184115 L8.69774011,12.3185757 L8.69774011,7.28248588 L9.87288136,8.45762712 C10.1327684,8.72881356 10.5621469,8.72881356 10.799435,8.45762712 C11.0333333,8.21355932 11.0567232,7.84135593 10.8696045,7.57989831 L10.799435,7.49717514 L8.50564972,5.20338983 C8.40621469,5.09491525 8.27062147,5.02983051 8.13358192,5.00813559 L8.03107345,5 Z M20,10.5 L13,10.5 C12.4477153,10.5 12,10.9477153 12,11.5 C12,12.0128358 12.3860402,12.4355072 12.8833789,12.4932723 L13,12.5 L20,12.5 C20.5522847,12.5 21,12.0522847 21,11.5 C21,10.9871642 20.6139598,10.5644928 20.1166211,10.5067277 L20,10.5 Z M24,7 L13,7 C12.4477153,7 12,7.44771525 12,8 C12,8.51283584 12.3860402,8.93550716 12.8833789,8.99327227 L13,9 L24,9 C24.5522847,9 25,8.55228475 25,8 C25,7.48716416 24.6139598,7.06449284 24.1166211,7.00672773 L24,7 Z"/>
</svg>

<svg xmlns="http://www.w3.org/2000/svg" width="30" height="30" viewBox="0 0 30 30"><path fill-rule="evenodd" d="M25 0a5 5 0 0 1 5 5v20a5 5 0 0 1-5 5H5a5 5 0 0 1-5-5V5a5 5 0 0 1 5-5h20ZM8.02 17a.68.68 0 0 0-.67.578l-.008.1v5.047L6.155 21.54l-.082-.07a.693.693 0 0 0-.878.07.687.687 0 0 0-.07.875l.07.085 2.294 2.294.085.073a.665.665 0 0 0 .288.122l.101.009h.068l.103-.009a.657.657 0 0 0 .29-.122l.082-.073 2.293-2.294.07-.082a.693.693 0 0 0-.07-.878.624.624 0 0 0-.843-.073l-.083.073-1.175 1.175v-5.036l-.008-.1A.68.68 0 0 0 8.02 17ZM24 21H13a1 1 0 0 0-.117 1.993L13 23h11a1 1 0 0 0 .117-1.993L24 21Zm-4-3.5h-7a1 1 0 0 0-.117 1.993L13 19.5h7a1 1 0 0 0 .117-1.993L20 17.5Zm4-3.5H13a1 1 0 0 0-.117 1.993L13 16h11a1 1 0 0 0 .117-1.993L24 14ZM8.031 5h-.068a.656.656 0 0 0-.39.13l-.084.073-2.294 2.294c-.26.271-.26.7 0 .96a.693.693 0 0 0 .878.07l.082-.07 1.187-1.186v5.048a.68.68 0 0 0 .678.678.68.68 0 0 0 .67-.579l.008-.1V7.283l1.175 1.176c.26.27.69.27.926 0a.693.693 0 0 0 .07-.878l-.07-.083-2.293-2.294a.642.642 0 0 0-.372-.195L8.03 5ZM20 10.5h-7a1 1 0 0 0-.117 1.993L13 12.5h7a1 1 0 0 0 .117-1.993L20 10.5ZM24 7H13a1 1 0 0 0-.117 1.993L13 9h11a1 1 0 0 0 .117-1.993L24 7Z"/></svg>
